X:1
T:Title
%%score { ( 1 3 ) | 2 }
L:1/8
M:4/4
K:Ab
V:1 treble nm="Grand Piano"
V:3 treble 
V:2 bass 
V:1
 z4 z2[Q:1/4=100] E2 | [CA][CA] [DA]>[DA] [CA]ECE | z4 z2 .A2 | cc c>c ecBA | B6 [Ge]2 | %5
 cc c>c B .A3 | [FA][FA] [FA]>[GB] [FA] .[DF]3 | [CE][CE][EA][FB] ccBB |[M:3/4] [CA]6 |] %9
V:2
 z4 z2 E,2 | [A,,E,][A,,E,] [A,,F,]>[A,,F,] [G,,E,]E,C,E, | [A,,E,]6 [C,A,][E,G,] | %3
 [A,E][A,E] [A,E]>[A,E] [A,CE][A,E][G,B,E][F,B,=D] | [E,G,E]6 [E,B,]2 | %5
 [A,CA][A,E] [A,E]>[A,E] [B,D][K:bass] .[A,C]3 | [D,A,][D,A,] [D,A,]>[D,A,] [D,D] .[D,A,]3 | %7
 [A,,A,][A,,A,][C,A,][D,A,] [E,A,E][E,A,E][E,G,D][E,G,D] |[M:3/4] [A,,A,]6 |] %9
V:3
 x8 | x8 | [CA]6 E-[EB] | x8 | x8 | x8 | x8 | x8 |[M:3/4] x6 |] %9

